X: 149
T: No_231_The_Rabbit_Brings_Back_a_Snake.krn
N: Derived from No_231_The_Rabbit_Brings_Back_a_Snake.krn
%%abc-version 2.0
%%abcx-abcm2ps-target-version 5.9.1 (29 Sep 2008)
%%abc-creator hum2abc beta
%%abcx-conversion-date 2019/03/15 08:38:45
%%humdrum-veritas 1643871184
%%humdrum-veritas-data 3872265582
%%linebreak <none>
%%barnumbers 0
L: 1/8
M: 2/4
K: D clef=bass
[K:clef=bass][M:2/4]A,4 [I:setbarnb 2]| 
A,3/F,/E,2 | 
D,2B,,2 | 
E,E, (3D,B,,B,, | 
D,2B,,2 ||  
[M:3/4]B,,B,, B,, zz2 ||  
[M:2/4]B,,B,, B,, z | 
B,,B,, B,, z | 
D,2B,,2 ||  
[M:3/4]B,,B,, B,,z3 ||  
[M:2/4]B,,B,, B,, z :|]  



